X:69
T:T041- Wachara wera wee
S:Hime's New Selection, c 1800
Q:1/4=120
L:1/8
M:6/8
K:D
dcB ABc|(d3d3)|fed def|(f3f2G|GAG gfg|\
agf ede|fed AB^d|(e3e2) (d/2e/2)|fed ABc|(d3d2):|]

